X:1
T:Title
%%score { 1 | ( 2 3 ) }
L:1/8
M:4/4
K:C
V:1 treble nm="Grand Piano"
V:2 bass 
V:3 bass 
V:1
 z4 z2[Q:1/4=100] [EG]2 | [EG]3 [FA] [EG]2 [EG]2 | [FA][Ac][GB]A [CEG]2 [CEG]2 | %3
 [CFA]3 [CFA] [CEG]2 [B,FG]2 | [CEG]6 [CE][DF] | [EG]3 [FA] [EG]2 [EG]2 | %6
 [FA][Ac][GB][FA] [EG]2 [EG]2 | A3 A B2 [FB]2 |[M:3/4] [Ec]6 |[M:1/4] [EG][EG] | %10
[M:4/4] [EG][Ge][Ec][FA] [EG]2 [EG][EG] | [EG][Ge][Ec]A [CEG]2 [CEG]2 | %12
 [CFA]3 [CFA] [CEG]2 [G,CE]2 | [G,B,D]6 [G,CE][G,DF] | [EG][Ge][Ec][FA] [EG]2 [EG][EG] | %15
 [EG][Ge][Ec][FA] [EG]2 [EG]2 | A3 A B2 [FG]2 |[M:3/4] [Ec]6 |] %18
V:2
 z4 z2 [C,G,]2 | [C,C]3 [C,C] [C,C]2 [C,C]2 | z2 [F,C]2 z4 | F,3 F, G,2 G,,2 | C,6 [C,G,]2 | %5
 [C,C]3 [C,C] [C,C]2 [C,C]2 | [F,C]2 [F,C]2 [C,C]2 [C,C]2 | [F,CF]3 [F,CF] [G,D]2 [G,,G,]2 | %8
[M:3/4] [C,G,]6 |[M:1/4] [C,C][C,C] |[M:4/4] [C,C]2 [C,C][C,C] [C,C]2 [C,C][C,C] | %11
 [C,C]2 z F C,2 C,2 | F,3 F, C,2 C,2 | G,,6 C,C, | [C,C]2 [C,C][C,C] [C,C]2 [C,C][C,C] | %15
 [C,C]2 [C,C][C,C] [C,C]2 [C,C]2 | [F,CF]3 [F,CF] [G,D]2 [G,,G,]2 |[M:3/4] [C,G,]6 |] %18
V:3
 x8 | x8 | [F,C]2 z F C,2 C,2 | x8 | x8 | x8 | x8 | x8 |[M:3/4] x6 |[M:1/4] x2 |[M:4/4] x8 | %11
 z2 [C,C]2 z4 | x8 | x8 | x8 | x8 | x8 |[M:3/4] x6 |] %18

